X:1
T:The Walk to Emmaus
T:The Walk to Emmaus
T:E. A. Riddle
T:Fannie I. Kennish, 1878
T:Public Domain Courtesy of the Cyber Hymnal™
T:Public Domain Courtesy of the Cyber Hymnal™
C:E. A. Riddle
Z:Public Domain
Z:Courtesy of the Cyber Hymnal™
%%score ( 1 2 ) ( 3 4 )
L:1/8
Q:1/4=155
M:6/4
K:Ab
V:1 treble 
V:2 treble 
V:3 bass 
V:4 bass 
V:1
 [CE]2 | [CE]2 [CE]2 [DF]2 (E2 A2) [DB]2 | [Ec]6 [EA]4 [EB]2 | [Ec]6 ([Fd]4 [Ec]2) | %4
w: 1.~Lo,|two of the Lord’s * di-|sci- ples Walked|side by *|
w: 2.~And|thus in the hush * of|even- ing They|sat at *|
w: 3.~So|wait we in pain * and|sor- row, In|bit- ter *|
 [EB]6- [EB]4 [EB]2 | [Ec]2 [Ec]2 [Ec]2 (B2 A2) [DF]2 | [CE]6 [CA]4 [Ec]2 | (B4 F2) (G4 F2) | %8
w: side, * And|talked of the dear, * dead|Mas- ter, The|Cru- * ci- *|
w: meat, * He|brake of the bread * and|blessed it, Said,|“Take * and *|
w: tears, * And|talk of the deep- * ’ning|sha- dows And|gloom- * y *|
 E6- E4 [EG]2 | [EB]2 [Ed]2 [Ed]2 [Ec]4 [DB]2 | [CA]6 E4 [EG]2 | [EB]6 (c4 B2) | %12
w: fied. * They|spake with the pass- ing|stran- ger, Who|walked a- *|
w: eat.” * The|eyes that were dim with|weep- ing, Flashed|bright and *|
w: fears. * We|mourn for the bleed- ing|Sav- ior, The|Cru- ci- *|
 [FA]6- [FA]4 [_GA]2 | [FA]2 [FA]2 [FA]2 [FB]4 [Fc]2 | [Fd]6 [DF]4 [DF]2 | (E4 A2) (A4 G2) | %16
w: lone; * Nor|heard in the words of|com- fort, The|Mas- * ter’s *|
w: clear; * The|hearts that had mourned sang|glad- ly, “The|Lord * is *|
w: fied; * Nor|know ’tis the dear Lord|walk- ing Close|by * our *|
 [CA]6- [CA]4 ||"^Refrain" E2 | E2 [EG]2 [EB]2 (d2 c2) [DB]2 | [CA]6 [CE]4 [Ec]2 | %20
w: tone. *||||
w: here.” *|So,|oft in the wan- * ing|twi- light, One|
w: side. *||||
 [EB]6 (B2 c2 [F=d]2) | [Ge]6- [Ge]4 [Ge]2 | e4 [Ed]2 [Ec]2 [Ed]2 [Ec]2 | [FB]6 [FA]4 z | %24
w: ||||
w: pass- eth * *|by; * His|voice rings out thro’ the|dark- ness,|
w: ||||
 ([CE]4 [EA]2) [EA]4 [EG]2 | [EA]6- [EA]4 |] %26
w: ||
w: “Lo, * it is|I.” *|
w: ||
V:2
 x2 | x6 C4 x2 | x12 | x12 | x12 | x6 E4 x2 | x12 | =D6 D6 | E6- E4 x2 | x12 | x6 E4 x2 | x6 =E6 | %12
 x12 | x12 | x12 | C6 D6 | x10 || E2 | E2 x2 E4 x4 | x12 | x6 =D4 x2 | x12 | (A2 E2) x8 | x11 | %24
 x12 | x10 |] %26
V:3
 [A,,A,]2 | [A,,A,]2 [A,,A,]2 [A,,A,]2 ([A,,A,]4 [A,,A,]2) | [A,,A,]6 [A,,C]4 [E,G,]2 | A,6 A,6 | %4
 [E,G,]6- [E,G,]4 [E,G,]2 | [A,,A,]2 [A,,A,]2 [A,,A,]2 ([B,,G,]2 [C,A,]2) [D,A,]2 | %6
 [A,,A,]6 [A,,A,]4 [A,,A,]2 | [B,,F,]6 (B,4 A,2) | [E,G,]6- [E,G,]4 [E,B,]2 | %9
 [E,G,]2 [E,G,]2 [E,G,]2 [E,A,]4 [E,G,]2 | [A,,A,]6 [A,,C]4 [E,B,]2 | [E,G,]6 (G,4 C2) | %12
 [F,C]6- [F,C]4 [E,C]2 | [D,D]2 [D,D]2 [D,D]2 [D,B,]4 [C,=A,]2 | [B,,B,]6 [D,A,]4 [D,A,]2 | %15
 ([E,A,]6 [E,B,]6) | [A,,A,]6- [A,,A,]4 || [E,G,]2 | [E,G,]2 [E,B,]2 [E,G,]2 [E,G,]4 [E,G,]2 | %19
 [A,,A,]6 [A,,A,]4 [A,,A,]2 | [B,,G,]6 [B,,B,]6 | [E,B,]6- [E,B,]4 [E,D]2 | %22
 ([A,,C]4 [A,,B,]2) [A,,A,]2 [B,,G,]2 [C,A,]2 | [D,A,]6 [D,A,]4 z | (A,4 C2) [E,D]4 [E,D]2 | %25
 [A,,C]6- [A,,C]4 |] %26
V:4
 x2 | x12 | x12 | A,6 A,6 | x12 | x12 | x12 | x6 B,,6 | x12 | x12 | x12 | x6 C,6 | x12 | x12 | %14
 x12 | x12 | x10 || x2 | x12 | x12 | x12 | x12 | x12 | x11 | E,6 x6 | x10 |] %26

